icons/src/fluent/svg/checkmark_circle_24_filled.svg

<svg width="24" height="24" viewBox="0 0 24 24" fill="none" xmlns="http://www.w3.org/2000/svg">
<path d="M12 2C17.5228 2 22 6.47715 22 12C22 17.5228 17.5228 22 12 22C6.47715 22 2 17.5228 2 12C2 6.47715 6.47715 2 12 2ZM15.2197 8.96967L10.75 13.4393L8.78033 11.4697C8.48744 11.1768 8.01256 11.1768 7.71967 11.4697C7.42678 11.7626 7.42678 12.2374 7.71967 12.5303L10.2197 15.0303C10.5126 15.3232 10.9874 15.3232 11.2803 15.0303L16.2803 10.0303C16.5732 9.73744 16.5732 9.26256 16.2803 8.96967C15.9874 8.67678 15.5126 8.67678 15.2197 8.96967Z" fill="#212121"/>
</svg>

<svg width="24" height="24" fill="none" viewBox="0 0 24 24" xmlns="http://www.w3.org/2000/svg"><path d="M12 2c5.523 0 10 4.477 10 10s-4.477 10-10 10S2 17.523 2 12 6.477 2 12 2Zm3.22 6.97-4.47 4.47-1.97-1.97a.75.75 0 0 0-1.06 1.06l2.5 2.5a.75.75 0 0 0 1.06 0l5-5a.75.75 0 1 0-1.06-1.06Z" fill="#212121"/></svg>
